icon-themes/sifr_svg/cmd/sc_cellprotection.svg

<svg viewBox="0 0 16 16" xmlns="http://www.w3.org/2000/svg"><path d="m8 1a4 4 0 0 0 -4 4v3h-2v7h12v-7h-2v-3a4 4 0 0 0 -4-4zm0 2a2 2 0 0 1 2 2v3h-4v-3a2 2 0 0 1 2-2zm-4 7h8v3h-8z" fill="#555753"/></svg>

<svg xmlns="http://www.w3.org/2000/svg" viewBox="0 0 16 16">
  <path
     style="fill:#555753"
     d="M 8 1 A 4 4 0 0 0 4 5 L 4 8 L 2 8 L 2 15 L 14 15 L 14 8 L 12 8 L 12 5 A 4 4 0 0 0 8 1 z M 8 3 A 2 2 0 0 1 10 5 L 10 8 L 6 8 L 6 5 A 2 2 0 0 1 8 3 z M 4 10 L 12 10 L 12 13 L 4 13 L 4 10 z "
     />
</svg>
